X:0565
T:French Air.
M:C|
L:1/8
Q:1/2=60 "Amoroso"
I: (1) :| (2) || ::
Z:Jack Campin * www.campin.me.uk * 2009
K:A
A2c2|(BAGA) (BcdB)|(AG)(FE) AGA=G|    F2dB    A2```G2|[1 A4:|\
                                                      [2 A6||
  B2| B2GB   BAGF | GA  B2  z2c2 | {c}B2GB    BA```GF|  HE4
zEFG| A4     BcdB | AG``FE  AGA=G|{^E}F2dB {B}A2{A}G2|   A6:|

